X:1
T:Standin In The Need of Prayer
T:Being a listening
T:Copyright 1881 by The Riverside Press
T:Rodeheaver's Plantation Melodies
Z:Rodeheaver's Plantation Melodies
%%score [ 1 2 ]
L:1/8
Q:1/4=70
M:4/4
K:G
V:1 treble nm="Soprano" snm="S."
V:2 bass nm="Tenor" snm="T."
V:1
 D>E | G/G/G G>E G G2 D/>E/ | G/G/G G>E E D2 D/>E/ | G/G/G G>A B B2 G | AG E<E D2!fine! || D>E | %6
w: Been a|lis- ten- ing all the night long. Been a|lis- ten- ing all the night long. Been a|lis- ten- ing all the night long. To|hear some sin- ner pray.|Some- *|
 GG G>E G G2 D | E<G G>G E<D D/D/ | GGGA B B2 G | AGEE D2!D.C.! |] %10
w: say that John the Bap- tist was|noth- ing but a Jew.- * But the|Ho- ly Bi- ble tells us he|was a preach- er too.|
V:2
 D,>E, | G,/G,/G, G,>E, G, G,2 D,/>E,/ | G,/G,/G, G,>E, E, D,2 D,/>E,/ | G,/G,/G, G,>A, B, B,2 G, | %4
 A,G, E,<E, D,2 || D,>E, | G,G, G,>E, G, G,2 D, | E,<G, G,>G, E,<D, D,/E,/ | %8
"_2.Go read the third of Matthew. And read the chapter thro'. \n    It is the guide for Christians, and tell them what to do." G,G,G,A, B, B,2 G, | %9
 A,G,E,E, D,2 |] %10

